X:152
T: Schon wieder toent vom Schachte her
N: D0238
O: Europa, Mitteleuropa, Deutschland, Oberschlesien
N: Inzipit = Transposition zum Lied
R: Staende - Lied, Bergmann
M: 6/8
L: 1/8
K: D
A | A2FF2F | F2DD2D | G2BdcB | c3Az
A | A2GB2G | G2FA2A | A2AABc | e2d2z
d | e2cA2G | F2Adz
d | e2cA2G | F2Adz
d | B2BdcB | A3dz
d | c3B2c | d2FB2
A | A3g2c | d3dz

